X: 170
T: Polska efter Carl-Johan Björklund
O: Hagfors, Värmland
Z:Transcribed to abcby Jon Magnusson 080429
R: Polska
M: 3/4
L: 1/8
K: Dm
f|(3:2:2 e4f2 e>d|(3 efg (3aba g>f|(3 ede gag d>e|(3:2:5 f2ageg (3fdf|
(3:2:2e4f2 e>d|(3 efg aba g>f|(3ede (3 gag d>e|(3 fag e4:|:
[K:A] (3:2:4 e2fed2 c>d|(3 efe (3dBd c>d|(3:2:5 e2gfed (3 cAc|(3 BGB A2 E2|
(3:2:4 e2fed2 c>d|(3 efe (3dBd c>c|(3:2:4 B2AGA2 (3BAB|A2 a4:|
(:musicend:)

(:music:)
